X:21064 
T:GAELIC REVIVAL (reel), The 
B:DMI.0784
Z:Nordberg/Black
R:reel
%Q:1/4=180
M:C|
L:1/8
K:A
c|dFE2 DFAF|dFF2 AFDc|BAGF EFGA|BABc dfec|
dFF2 AFF2|DFAc dcde|fedc BcdB|AFdF FEE||
%
d|cAeA EAcA|cBce fedc|dBfB GABc|dcdf gfed|
cAEA cAeA|cBce fefg|agfe fedc|dfed cAA||
%
d|cBAc BAFA|dFF2 AFDd|cBAc BAFA|BEEF GABd|
cBAc BAFA|DFAB ABde|fedc BcdB|AFdF FEE||
%
d|cAEA eAce|fgaf edce|dBGB fBde|fefg afed|
cAGA eAGA|fAaA cdea|fede fgaf|ecdB cAA2|]

%%%

